X: 27429
T: Moll Roe
R: slip jig
M: 9/8
K: Gmajor
|:DGG GAG FGA|B3 GAB c3|DGG GAG FGA|B3 cAF G3:|
|:ded cAG FED|ded cAB c3|ded cAG FGA|B3 cAF G3:|

